src/icons/fullscreen.svg

<?xml version="1.0" encoding="UTF-8" standalone="no"?>
<svg width="36" height="36" viewBox="0 0 36 36" xmlns="http://www.w3.org/2000/svg">
  <g clip-path="url(#clip0_5704_67)" transform="matrix(0.72424773,0,0,0.72424773,-0.006815,0.49090202)">
    <path d="m 11.5,11 2.9886,11.1536 8.1649,-8.165 z M 25,24.5 25.7071,25.2071 26.4142,24.5 25.7071,23.7929 Z M 11.5,38 22.6535,35.0114 14.4886,26.8464 Z m 5.6569,-19.9289 7.136,7.136 1.4142,-1.4142 -7.136,-7.136 z m 7.136,5.7218 -7.136,7.136 1.4142,1.4142 7.136,-7.136 z"/>
    <path d="m 38.391,11 -2.9886,11.1536 -8.165,-8.165 z m -13.5,13.5 -0.7071,0.7071 -0.7071,-0.7071 0.7071,-0.7071 z m 13.5,13.5 -11.1536,-2.9886 8.165,-8.165 z m -5.6569,-19.9289 -7.136,7.136 -1.4142,-1.4142 7.136,-7.136 z m -7.136,5.7218 7.136,7.136 -1.4142,1.4142 -7.136,-7.136 z"/>
  </g>
</svg>

<svg width="50" height="50" viewBox="0 0 50 50" fill="none" xmlns="http://www.w3.org/2000/svg">
<g clip-path="url(#clip0_5704_67)">
<path d="M11.5 11L14.4886 22.1536L22.6535 13.9886L11.5 11ZM25 24.5L25.7071 25.2071L26.4142 24.5L25.7071 23.7929L25 24.5ZM11.5 38L22.6535 35.0114L14.4886 26.8464L11.5 38ZM17.1569 18.0711L24.2929 25.2071L25.7071 23.7929L18.5711 16.6569L17.1569 18.0711ZM24.2929 23.7929L17.1569 30.9289L18.5711 32.3431L25.7071 25.2071L24.2929 23.7929Z" fill="black"/>
<path d="M38.391 11L35.4024 22.1536L27.2374 13.9886L38.391 11ZM24.891 24.5L24.1839 25.2071L23.4768 24.5L24.1839 23.7929L24.891 24.5ZM38.391 38L27.2374 35.0114L35.4024 26.8464L38.391 38ZM32.7341 18.0711L25.5981 25.2071L24.1839 23.7929L31.3199 16.6569L32.7341 18.0711ZM25.5981 23.7929L32.7341 30.9289L31.3199 32.3431L24.1839 25.2071L25.5981 23.7929Z" fill="black"/>
</g>
<defs>
<clipPath id="clip0_5704_67">
<rect width="50" height="50" fill="white"/>
</clipPath>
</defs>
</svg>
